client/public/img/misc/command_icon.svg

<?xml version="1.0" encoding="UTF-8" standalone="no"?>
<svg
   width="26"
   height="26"
   viewBox="0 0 26 26"
   fill="none"
   version="1.1"
   id="svg1"
   xmlns="http://www.w3.org/2000/svg"
   xmlns:svg="http://www.w3.org/2000/svg">
  <defs
     id="defs1" />
  <path
     fill-rule="evenodd"
     clip-rule="evenodd"
     d="M0.496094 5.55073C0.496094 2.75644 2.76132 0.491211 5.55562 0.491211C8.34992 0.491211 10.6151 2.75644 10.6151 5.55073V7.93169H15.377V5.55073C15.377 2.75644 17.6423 0.491211 20.4366 0.491211C23.2309 0.491211 25.4961 2.75644 25.4961 5.55073C25.4961 8.34503 23.2309 10.6103 20.4366 10.6103H18.0556V15.3722H20.4366C23.2309 15.3722 25.4961 17.6374 25.4961 20.4317C25.4961 23.226 23.2309 25.4912 20.4366 25.4912C17.6423 25.4912 15.377 23.226 15.377 20.4317V18.0507H10.6151V20.4317C10.6151 23.226 8.34992 25.4912 5.55562 25.4912C2.76132 25.4912 0.496094 23.226 0.496094 20.4317C0.496094 17.6374 2.76132 15.3722 5.55562 15.3722H7.93657V10.6103H5.55562C2.76132 10.6103 0.496094 8.34503 0.496094 5.55073ZM7.93657 7.93169V5.55073C7.93657 4.23577 6.87058 3.16978 5.55562 3.16978C4.24065 3.16978 3.17467 4.23577 3.17467 5.55073C3.17467 6.8657 4.24065 7.93169 5.55562 7.93169H7.93657ZM7.93657 18.0507H5.55562C4.24065 18.0507 3.17467 19.1167 3.17467 20.4317C3.17467 21.7467 4.24065 22.8126 5.55562 22.8126C6.87058 22.8126 7.93657 21.7467 7.93657 20.4317V18.0507ZM10.6151 15.3722H15.377V10.6103H10.6151V15.3722ZM18.0556 18.0507V20.4317C18.0556 21.7467 19.1216 22.8126 20.4366 22.8126C21.7515 22.8126 22.8175 21.7467 22.8175 20.4317C22.8175 19.1167 21.7515 18.0507 20.4366 18.0507H18.0556ZM18.0556 7.93169H20.4366C21.7515 7.93169 22.8175 6.8657 22.8175 5.55073C22.8175 4.23577 21.7515 3.16978 20.4366 3.16978C19.1216 3.16978 18.0556 4.23577 18.0556 5.55073V7.93169Z"
     fill="#333333"
     id="path1" />
</svg>

<svg xmlns="http://www.w3.org/2000/svg" width="26" height="26" fill="none"><path fill="#333" fill-rule="evenodd" d="M.496 5.55a5.06 5.06 0 0 1 10.12 0v2.382h4.761V5.55a5.06 5.06 0 1 1 5.06 5.06h-2.381v4.761h2.38a5.06 5.06 0 1 1-5.059 5.06V18.05h-4.762v2.38a5.06 5.06 0 1 1-5.06-5.059h2.382V10.61H5.556a5.06 5.06 0 0 1-5.06-5.06m7.44 2.382V5.55a2.381 2.381 0 1 0-2.38 2.38zm0 10.119h-2.38a2.381 2.381 0 1 0 2.38 2.38zm2.68-2.679h4.761V10.61h-4.762zm7.44 2.679v2.38a2.38 2.38 0 1 0 2.38-2.38zm0-10.12h2.38a2.381 2.381 0 1 0-2.38-2.38z" clip-rule="evenodd"/></svg>
